X: 1
T: December Reel
C: David A Kaynor & Gianna Marzilli Ericson (2019)
R: reel
%D:2019
B: David A. Kaynor "Living Music and Dance" 2021
Z: 2022 John Chambers <jc:trillian.mit.edu>
S: Dave_Kaynors_Melodies_and_Harmonies.PDF
M: 4/4
L: 1/8
Q: "Reel"
K: A
# = = = = = = = = = =
EG |:\
"A"A2ag fedc | "E"BAGA B2EE | EFGA BcdB |1,3 "A"ABcd "E"e2cB :|2,4 "A"cA"E"BG "A"A2 :|
|: EE |\
"A"EAed cBAB | cecB "F#m"A2FF | FAfe "Bm"dcBA | "E"Bcef edcB |
"A"A2ag fedc | "E"BAGA B2Bc | "D"defg afed | "A"cA"E"BG "A"A2 :|
# = = = = = = = = = =
%%begintext align
%%endtext
